X:43
T:Trip to Sligo, The
R:jig
Z:id:hn-jig-43
M:6/8
K:Em
E2e BGE | D2d AFD | E2e BGE | GFE e2f |
gfe dcB | ABG FED | EFG ABc |1 BGF E2D :|2 BGF E2e ||
|: eBe gfe | dAd fed | eBe gfe | faf gfe |
faf gfe | dAG FED | EFG ABc |1 BGF E2e :|2 BGF E2D ||
P:variations
|: E2e BGE | D2d AFD | E2e BAF | GFE e2f |
gfe dcB | AFd AFD | EFG ABc |1 BGF E2D :|2 BGF E2e ||
|: eBe gbe | dAd faf | eBe gfe | f/g/af gfe |
faf gfe | d^cd AFD | EFG ABc |1 BGF E2e :|2 BGF E2D ||

